!!!OTL: 880a. Der Gutzgauch.
!!!ODT: 1540
!!!ARE: Europa, Mitteleuropa, Deutschland
!!!SCT: E0880
!!!TXL: @@DE
!!!YEM: Copyright 1995, estate of Helmut Schaffrath.
**kern	**text
*ICvox	*
*M4/4	*
*met(c)	*
*k[b-]	*
*F:	*
=1	=1
2r	.
4r	.
{4f	Der
=2	=2
4g	Gutʒ-
4f	-gauch
4e	auf
4f	dem
=3	=3
2g	Ʒau-
2a	-ne
=4	=4
2f	ſaß,
4r}	.
{4f	der
=5	=5
4a	Gutʒgauch
4a	.
4b-	auf
4b-	dem
=6	=6
2cc	Ʒaune
2cc	.
=7	=7
(<4.g	ſaß,
16aL	.
16b-J	.
4cc)}	.
{4cc	es
=8	=8
4b-/	reg-
4a	-net
4g	ſehr
4f	und
=9	=9
2g	er
2e	ward
=10	=10
(4.f	naß,
8g	.
4a)}	.
{4cc	es
=11	=11
4b-/	reg-
4a	-net
4g	ſehr
4f	und
=12	=12
2g	er
2e	ward
=13	=13
1f}	naß.
==	==
!!!AGN: Hochzeits -, Ehestands - Lied
!!!ONB: ESAC (Essen Associative Code) Database: ERK2
!!!AMT: simple quadruple
!!!AIN: vox
!!!EED: Helmut Schaffrath
!!!EEV: 1.0
!!!GTL: Hochzeits- und Ehrstandslieder, nebst Nonnenklagen
!!!URL-scan: https://rosdok.uni-rostock.de/mcrviewer/recordIdentifier/rosdok_ppn745177662/iview2/phys_0676.iview2?x=193.8995864193107&y=1834.5563690774143&scale=0.7029437510502773&rotation=0&layout=singlePageLayout
!!!ENC: Anna Maria Matuszewska
!!!EEV: 2024/12/18
*-	*-
